src/configurations/bsmn/style/favicon.svg

<?xml version="1.0" encoding="UTF-8" standalone="no"?>
<svg
   viewBox="0 0 47.945301 36"
   fill="none"
   version="1.1"
   id="svg285"
   sodipodi:docname="favicon.svg"
   inkscape:version="1.2.1 (9c6d41e4, 2022-07-14)"
   xmlns:inkscape="http://www.inkscape.org/namespaces/inkscape"
   xmlns:sodipodi="http://sodipodi.sourceforge.net/DTD/sodipodi-0.dtd"
   xmlns="http://www.w3.org/2000/svg"
   xmlns:svg="http://www.w3.org/2000/svg">
  <sodipodi:namedview
     id="namedview287"
     pagecolor="#ffffff"
     bordercolor="#000000"
     borderopacity="0.25"
     inkscape:showpageshadow="2"
     inkscape:pageopacity="0.0"
     inkscape:pagecheckerboard="0"
     inkscape:deskcolor="#d1d1d1"
     showgrid="false"
     inkscape:zoom="6.5555556"
     inkscape:cx="27.533898"
     inkscape:cy="18"
     inkscape:window-width="1309"
     inkscape:window-height="456"
     inkscape:window-x="0"
     inkscape:window-y="25"
     inkscape:window-maximized="0"
     inkscape:current-layer="svg285" />
  <g
     clip-path="url(#clip0)"
     id="g278">
    <path
       d="m 36.4793,9.6886 c 0,0.18367 0,0.3214 0.0442,0.5051 l -5.4453,1.7908 c -0.2213,-0.6888 -0.6641,-1.2857 -1.2396,-1.653 L 33.823,0.413086 37.5418,7.66819 C 36.922,8.08145 36.4793,8.86207 36.4793,9.6886 Z"
       fill="#ef6631"
       id="path236" />
    <path
       d="M 27.7136,9.96429 24.2605,0 h 9.1641 L 29.3959,10.102 C 29.086,9.96429 28.7319,9.91837 28.3334,9.91837 c -0.2213,-0.04592 -0.4427,0 -0.6198,0.04592 z"
       fill="#f4a632"
       id="path238" />
    <path
       d="m 31.7865,19.837 c -0.2214,0 -0.4427,0.0459 -0.6198,0.0918 l -1.5052,-4.3622 c 0.9297,-0.5051 1.5937,-1.5153 1.5937,-2.6633 0,-0.1378 0,-0.2755 -0.0442,-0.4133 l 5.4896,-1.7908 c 0.3099,0.7347 0.9296,1.2857 1.7265,1.4235 l -0.8854,8.7704 -3.2318,0.8265 C 33.9558,20.5717 32.9375,19.837 31.7865,19.837 Z"
       fill="#164d9a"
       id="path240" />
    <path
       d="m 43.5625,19.2859 -5.4896,1.4235 0.8854,-8.5868 c 0.2656,0 0.5755,-0.0918 0.7969,-0.1836 z"
       fill="#2699a7"
       id="path242" />
    <path
       d="m 13.7682,7.43864 4.737,-4.86735 -1.2396,7.53061 -3.0547,-0.73469 c 0.0443,-0.13776 0.0443,-0.32143 0.0443,-0.45919 0,-0.55102 -0.1771,-1.05612 -0.487,-1.46938 z"
       fill="#164d9a"
       id="path244" />
    <path
       d="m 29.1302,15.75 1.5053,4.3163 c -0.8855,0.4592 -1.5053,1.3776 -1.5053,2.4796 0,0.1378 0,0.2756 0.0443,0.4133 l -4.8255,1.2398 3.4089,-8.4949 c 0.2213,0.0459 0.4427,0.0918 0.664,0.0918 0.2214,0.046 0.4427,0.046 0.7083,-0.0459 z"
       fill="#f4a632"
       id="path246" />
    <path
       d="m 15.4062,21.4897 -0.5755,3.4898 -3.0547,-3.1225 2.4792,-1.2857 c 0.3099,0.4133 0.7083,0.7347 1.151,0.9184 z"
       fill="#164d9a"
       id="path248" />
    <path
       d="M 10.138,10.4697 4.25,16.5768 0,13.6839 3.58594,7.25537 9.60677,8.72476 c 0,0.04592 0,0.13775 0,0.18367 0,0.59694 0.22135,1.14797 0.53123,1.56127 z"
       fill="#799942"
       id="path250" />
    <path
       d="m 25.7215,14.0513 -7.5261,3.903 c -0.3099,-0.551 -0.8411,-0.9643 -1.4609,-1.102 l 0.974,-6.1531 7.7474,1.8827 c 0,0.0918 0,0.1836 0,0.2755 0,0.4132 0.0885,0.8265 0.2656,1.1939 z"
       fill="#2699a7"
       id="path252" />
    <path
       d="M 25.5441,12.1224 17.7968,10.2398 19.1691,1.92853 23.729,0.0917969 27.2264,10.1479 c -0.8411,0.3674 -1.4609,1.1021 -1.6823,1.9745 z"
       fill="#799942"
       id="path254" />
    <path
       d="m 13.901,19.194 c 0,0.3214 0.0442,0.6429 0.177,0.9184 l -2.6562,1.3775 -6.72917,-4.5918 5.84377,-6.0612 c 0.3984,0.3214 0.8854,0.5051 1.4166,0.5051 0.974,0 1.8151,-0.6429 2.1693,-1.51534 l 3.099,0.78064 -1.0183,6.2449 c -1.2838,-0.0459 -2.302,1.0102 -2.302,2.3418 z"
       fill="#f4a632"
       id="path256" />
    <path
       d="m 43.6511,19.7451 v 3.9031 l -2.3906,4.7296 -4.1172,1.6989 0.8854,-8.9081 z"
       fill="#ef6631"
       id="path258" />
    <path
       d="m 18.5051,19.194 c 0,-0.2755 -0.0442,-0.5511 -0.1328,-0.8266 l 7.5261,-3.9489 c 0.3099,0.5051 0.7526,0.9183 1.2838,1.1479 l -3.5417,8.8163 -2.2578,0.597 -6.0651,0.2755 0.6198,-3.6735 c 0.0886,0 0.1771,0 0.2656,0 1.2839,0.0459 2.3021,-1.0561 2.3021,-2.3877 z"
       fill="#ef6631"
       id="path260" />
    <path
       d="m 30.7682,25.1174 -1.5937,5.648 -2.0808,-2.5714 -2.789,-3.4898 4.9583,-1.2857 c 0.2656,0.7806 0.7969,1.4234 1.5052,1.6989 z"
       fill="#2699a7"
       id="path262" />
    <path
       d="M 10.7136,21.6274 5.26827,22.0866 1.90369,19.7447 4.33858,17.2192 Z"
       fill="#2699a7"
       id="path264" />
    <path
       d="m 32.4063,25.2549 2.5677,7.3928 0.7526,2.8011 -2.3463,0.5969 -3.8073,-4.6837 1.7266,-6.0153 c 0.177,0.0459 0.3099,0.0459 0.4869,0.0459 0.2214,-0.0459 0.4427,-0.0918 0.6198,-0.1377 z"
       fill="#799942"
       id="path266" />
    <path
       d="M 1.68241,19.2858 0.132935,14.3726 3.89596,16.944 Z"
       fill="#164d9a"
       id="path268" />
    <path
       d="m 38.8256,7.30082 c -0.2656,0 -0.5312,0.04592 -0.7526,0.13776 L 34.4871,0.458984 44.4923,7.62225 40.9506,8.77021 C 40.5964,7.89776 39.7996,7.30082 38.8256,7.30082 Z"
       fill="#164d9a"
       id="path270" />
    <path
       d="m 41.1276,9.68875 c 0,-0.18368 0,-0.32143 -0.0443,-0.50511 l 3.7631,-1.23979 3.0989,4.95915 -1.2838,6.2449 H 44.138 l -3.8958,-7.5765 c 0.5312,-0.3673 0.8854,-1.102 0.8854,-1.88265 z"
       fill="#f4a632"
       id="path272" />
    <path
       d="m 34.4427,22.5918 c 0,-0.1377 0,-0.3214 -0.0443,-0.4591 l 3.0547,-0.7806 -0.9297,9.0918 -1.1953,1.6071 -2.3906,-6.9796 c 0.8854,-0.4591 1.5052,-1.3775 1.5052,-2.4796 z"
       fill="#f4a632"
       id="path274" />
    <path
       d="M 9.69527,8.26541 4.07288,6.88786 13.0156,2.02051 h 5.3125 L 13.4583,7.07153 C 13.0599,6.70418 12.5286,6.47459 11.9531,6.47459 c -1.1068,0 -1.9922,0.78061 -2.25783,1.79082 z"
       fill="#2699a7"
       id="path276" />
  </g>
  <defs
     id="defs283">
    <clipPath
       id="clip0">
      <rect
         width="136"
         height="36"
         fill="#ffffff"
         id="rect280"
         x="0"
         y="0" />
    </clipPath>
  </defs>
</svg>

<svg viewBox="0 0 55 36" fill="none" xmlns="http://www.w3.org/2000/svg">
<g clip-path="url(#clip0)">
<path d="M36.4793 9.6886C36.4793 9.87227 36.4793 10.01 36.5235 10.1937L31.0782 11.9845C30.8569 11.2957 30.4141 10.6988 29.8386 10.3315L33.823 0.413086L37.5418 7.66819C36.922 8.08145 36.4793 8.86207 36.4793 9.6886Z" fill="#EF6631"/>
<path d="M27.7136 9.96429L24.2605 0H33.4246L29.3959 10.102C29.086 9.96429 28.7319 9.91837 28.3334 9.91837C28.1121 9.87245 27.8907 9.91837 27.7136 9.96429Z" fill="#F4A632"/>
<path d="M31.7865 19.837C31.5651 19.837 31.3438 19.8829 31.1667 19.9288L29.6615 15.5666C30.5912 15.0615 31.2552 14.0513 31.2552 12.9033C31.2552 12.7655 31.2552 12.6278 31.211 12.49L36.7006 10.6992C37.0105 11.4339 37.6302 11.9849 38.4271 12.1227L37.5417 20.8931L34.3099 21.7196C33.9558 20.5717 32.9375 19.837 31.7865 19.837Z" fill="#164D9A"/>
<path d="M43.5625 19.2859L38.0729 20.7094L38.9583 12.1226C39.2239 12.1226 39.5338 12.0308 39.7552 11.939L43.5625 19.2859Z" fill="#2699A7"/>
<path d="M13.7682 7.43864L18.5052 2.57129L17.2656 10.1019L14.2109 9.36721C14.2552 9.22945 14.2552 9.04578 14.2552 8.90802C14.2552 8.357 14.0781 7.8519 13.7682 7.43864Z" fill="#164D9A"/>
<path d="M29.1302 15.75L30.6355 20.0663C29.75 20.5255 29.1302 21.4439 29.1302 22.5459C29.1302 22.6837 29.1302 22.8215 29.1745 22.9592L24.349 24.199L27.7579 15.7041C27.9792 15.75 28.2006 15.7959 28.4219 15.7959C28.6433 15.8419 28.8646 15.8419 29.1302 15.75Z" fill="#F4A632"/>
<path d="M15.4062 21.4897L14.8307 24.9795L11.776 21.857L14.2552 20.5713C14.5651 20.9846 14.9635 21.306 15.4062 21.4897Z" fill="#164D9A"/>
<path d="M10.138 10.4697L4.25 16.5768L0 13.6839L3.58594 7.25537L9.60677 8.72476C9.60677 8.77068 9.60677 8.86251 9.60677 8.90843C9.60677 9.50537 9.82812 10.0564 10.138 10.4697Z" fill="#799942"/>
<path d="M25.7215 14.0513L18.1954 17.9543C17.8855 17.4033 17.3543 16.99 16.7345 16.8523L17.7085 10.6992L25.4559 12.5819C25.4559 12.6737 25.4559 12.7655 25.4559 12.8574C25.4559 13.2706 25.5444 13.6839 25.7215 14.0513Z" fill="#2699A7"/>
<path d="M25.5441 12.1224L17.7968 10.2398L19.1691 1.92853L23.729 0.0917969L27.2264 10.1479C26.3853 10.5153 25.7655 11.25 25.5441 12.1224Z" fill="#799942"/>
<path d="M13.901 19.194C13.901 19.5154 13.9452 19.8369 14.078 20.1124L11.4218 21.4899L4.69263 16.8981L10.5364 10.8369C10.9348 11.1583 11.4218 11.342 11.953 11.342C12.927 11.342 13.7681 10.6991 14.1223 9.82666L17.2213 10.6073L16.203 16.8522C14.9192 16.8063 13.901 17.8624 13.901 19.194Z" fill="#F4A632"/>
<path d="M43.6511 19.7451V23.6482L41.2605 28.3778L37.1433 30.0767L38.0287 21.1686L43.6511 19.7451Z" fill="#EF6631"/>
<path d="M18.5051 19.194C18.5051 18.9185 18.4609 18.6429 18.3723 18.3674L25.8984 14.4185C26.2083 14.9236 26.651 15.3368 27.1822 15.5664L23.6405 24.3827L21.3827 24.9797L15.3176 25.2552L15.9374 21.5817C16.026 21.5817 16.1145 21.5817 16.203 21.5817C17.4869 21.6276 18.5051 20.5256 18.5051 19.194Z" fill="#EF6631"/>
<path d="M30.7682 25.1174L29.1745 30.7654L27.0937 28.194L24.3047 24.7042L29.263 23.4185C29.5286 24.1991 30.0599 24.8419 30.7682 25.1174Z" fill="#2699A7"/>
<path d="M10.7136 21.6274L5.26827 22.0866L1.90369 19.7447L4.33858 17.2192L10.7136 21.6274Z" fill="#2699A7"/>
<path d="M32.4063 25.2549L34.974 32.6477L35.7266 35.4488L33.3803 36.0457L29.573 31.362L31.2996 25.3467C31.4766 25.3926 31.6095 25.3926 31.7865 25.3926C32.0079 25.3467 32.2292 25.3008 32.4063 25.2549Z" fill="#799942"/>
<path d="M1.68241 19.2858L0.132935 14.3726L3.89596 16.944L1.68241 19.2858Z" fill="#164D9A"/>
<path d="M38.8256 7.30082C38.56 7.30082 38.2944 7.34674 38.073 7.43858L34.4871 0.458984L44.4923 7.62225L40.9506 8.77021C40.5964 7.89776 39.7996 7.30082 38.8256 7.30082Z" fill="#164D9A"/>
<path d="M41.1276 9.68875C41.1276 9.50507 41.1276 9.36732 41.0833 9.18364L44.8464 7.94385L47.9453 12.903L46.6615 19.1479H44.138L40.2422 11.5714C40.7734 11.2041 41.1276 10.4694 41.1276 9.68875Z" fill="#F4A632"/>
<path d="M34.4427 22.5918C34.4427 22.4541 34.4427 22.2704 34.3984 22.1327L37.4531 21.3521L36.5234 30.4439L35.3281 32.051L32.9375 25.0714C33.8229 24.6123 34.4427 23.6939 34.4427 22.5918Z" fill="#F4A632"/>
<path d="M9.69527 8.26541L4.07288 6.88786L13.0156 2.02051H18.3281L13.4583 7.07153C13.0599 6.70418 12.5286 6.47459 11.9531 6.47459C10.8463 6.47459 9.9609 7.2552 9.69527 8.26541Z" fill="#2699A7"/>
</g>
<defs>
<clipPath id="clip0">
<rect width="136" height="36" fill="white"/>
</clipPath>
</defs>
</svg>
